X:1
T:Diaphenia
T:Charles Villiers Stanford (1852-1924)
T:Six Elizabethan Pastorals Op. 49, nr. 3.
T:Diaphenia
T:Damelus' song to his Diaphenia
T:Wim Looyestijn (2017). May be freely copied for non-commercial use.
T:Wim Looyestijn (2017). May be freely copied for non-commercial use.
T:Wim Looyestijn (2017). May be freely copied for non-commercial use.
T:Wim Looyestijn (2017). May be freely copied for non-commercial use.
T:Wim Looyestijn (2017). May be freely copied for non-commercial use.
T:Wim Looyestijn (2017). May be freely copied for non-commercial use.
T:Wim Looyestijn (2017). May be freely copied for non-commercial use.
T:Wim Looyestijn (2017). May be freely copied for non-commercial use.
T:Wim Looyestijn (2017). May be freely copied for non-commercial use.
T:Wim Looyestijn (2017). May be freely copied for non-commercial use.
T:Wim Looyestijn (2017). May be freely copied for non-commercial use.
C:Charles Villiers Stanford
C:(1852-1924)
Z:Wim Looyestijn (2017). May be freely copied for non-commercial use.
%%score 1 2 3 4
L:1/8
Q:1/4=112
M:4/4
K:E
V:1 treble nm="Soprano"
V:2 treble nm="Alto"
V:3 treble-8 nm="Tenor"
V:4 bass nm="Bass"
V:1
"^Allegro assai" z6!f! BB | e4 E2 FG | AG F2 G B3 | c2 de f4 | B2 cd e2 B2 | z4 !>!e4 | %6
w: Di- a-|phe- nia, like the|daf- fo- down- dil- ly,|white as the sun,|fair as the li- ly,|Heigh-|
 G3 A B2 c2 | G4 F4 |!p! F2 G2 A2 c2 | AG F2"^cresc." A4 | B3 c =d2 f2 | =dc B2 c2!f! ^d2 | %12
w: ho, how I do|love thee!|I do love thee|as _ my lambs|are be- lov- ed|of _ their dams, How|
 !>!e3 B G2 G2 | !>!c3!>(! G E2!>)! F2 | G2 c2 B4- | B4 E4 || z6!f! BB | e4 E2 FG | AG F2 G2 B2 | %19
w: blest were I, how|blest were I if|thou would'st prove|_ me!|Di- a-|phe- nia, like the|spread- * ing ro- ses,|
 c2 de f2 f2 | B2 cd!>(! e2!>)! B2 | z4!>(! !>!e4 | G3!>)! A B2 c2 | G4 F4 |!p! F2 G2 A2 c2 | %25
w: that in thy sweets all|love en- * clo- ses,|Fair|sweet, how I do|love thee!|I do love thee|
 AG"^cresc." F2 A4 | B3 c =d2 f2 | =dc B2 c2!f! ^d2 | !>!e3 B G2 G2 | !>!c3!>(! G E2!>)! F2 | %30
w: as _ each flower|loves the sun's life-|giv- * ing power; For|dead, thy breath to|life, thy breath to|
 G2 c2 B4- | B4 E4 || z6!f! BB | e4 E4 | F2 G2 A2 GF | G4 B2 z2 | z3 c B2 cd | e2 B2 G2 AB | %38
w: life might move|_ me.|Di- a-|phe- nia,|like to all things _|bless- sed,|when all thy _|prai- ses are ex- *|
 c2 c2 f4 | B3 c d2 e2 | G4 F4 |!p! F3 G A2 c2 | c2 AG F4 |"^cresc." B3 c =d2 f2 | %44
w: pres- sed, Dear|joy, how I do|love thee!|As the birds do|love the _ Spring,|Or the bees their|
 f2 =dc B2!f! B2 | e3 c A2 G2 | c3 A F2 z2 | z6!mf! A2 |!<(! B2 c2 d2 e2!<)! | !>!B8- | %50
w: care- ful _ king : Then|in re- quite, then|in re- quite,|Sweet|vir- * * gin,|love|
!>(! B4 E4!>)! |] %51
w: _ me.|
V:2
 z6!f! BB | G4 E2 EE | EE D2 E E3 | G4 F2 GA | F4!>(! E2 FG!>)! | G2 F2 !>!E4 | C3 E E2 E2 | %7
w: Di- a-|phe- nia, like the|daf- fo- down- dil- ly,|white, white as the|sun, fair as the|li- ly, Heigh-|ho, how I do|
 E4 D4 |!p! D2 E2 F2 A2 | FE D2"^cresc." F4 | G3 A F2 A2 | G2 G2 A2!f! F2 | !>!E3 D E2 F2 | %13
w: love thee!|I do love thee|as _ my lambs|are be- lov- ed|of their dams, How|blest were I, how|
 !>!E3!>(! E C2!>)! E2 | E2 E2 E2 D2 | F4 E4 || z6!f! BB | G4 E2 EE | E2 D2 E2 E2 | G4 F2 GA | %20
w: blest were I if|thou would'st prove _|_ me!|Di- a-|phe- nia, like the|spread- ing ro- ses,|that in thy _|
 F4!>(! E2 F!>)!G | G2 F2!>(! !>!E4 | C3!>)! E E2 E2 | E4 D4 |!p! D2 E2 F2 A2 | FE"^cresc." D2 F4 | %26
w: sweets all love en-|clo- ses, Fair|sweet, how I do|love thee!|I do love thee|as _ each flower|
 G3 A F2 A2 | G2 G2 A2!f! F2 | !>!E3 D E2 F2 | !>!E3!>(! E C2!>)! E2 | E2 E2 E2 D2 | F4 E4 || %32
w: loves the sun's life-|giv- ing power; For|dead, thy breath to|life, thy breath to|life might move _|_ me.|
 z6!f! BB | G4 E4 | E2 E2 E2 D2 | E4 E2 z2 | z3 E D2 EF | E3 F G2 FG | A2 A2 c4 | B3 A A2 G2 | %40
w: Di- a-|phe- nia,|like to all things|bless- sed,|when all thy _|prai- ses are ex- *|pres- sed, Dear|joy, how I do|
 E4 D4 |!p! D3 E F2 A2 | A2 F2 C2 D2 |"^cresc." E3 E E2 A2 | G3 A E2!f! G2 | A3 A A2 C2 | %46
w: love thee!|As the birds do|love the Spring, _|Or the bees their|care- ful king : Then|in re- quite, then|
 C3 F F2!p! D2 |!<(! E2 F2 G2 E2!<)! | E4 F2 E2 | z4 D4- |!>(! [DF]4 E4!>)! |] %51
w: in re- quite, Sweet|vir- * gin, sweet|vir- * gin,|love|_ me.|
V:3
 z6!f! BB | B4 B2 cB | cc d2 B G3 | e4 d2 ef | f2 B2!>(! B2 BB!>)! | e2 d2 !>!c4 | E3 c B2 ^A2 | %7
w: Di- a-|phe- nia, like the|daf- fo- down- dil- ly,|white, white as the|sun, _ fair as the|li- ly, Heigh-|ho, how I do|
 B4 B4 |!p! B3 B A3 G | F2 c2"^cresc." A2 F2 | F2 E2 A3 =d | Bc =d2 c2!f! B2 | !>!B3 A B2 =c2 | %13
w: love thee!|I do love thee|as my lambs _|are be- lov- ed|of _ their dams, How|blest were I, how|
 !>!c3!>(! c G2!>)! ^A2 | B2 c2 F2 A2 | A4 G4 || z6!f! BB | B4 B2 cB | c2 d2 B2 G2 | e4 d2 ef | %20
w: blest were I if|thou _ would'st _|prove me!|Di- a-|phe- nia, like the|spread- ing ro- ses,|that in thy _|
 f2 B2!>(! B2 B!>)!B | e2 d2!>(! !>!c4 | E3!>)! c B2 ^A2 | B4 B4 |!p! B3 B A3 G | %25
w: sweets _ all love en-|clo- ses, Fair|sweet, how I do|love thee!|I do love thee|
 F2"^cresc." c2 A2 F2 | F2 E2 A3 =d | Bc =d2 c2!f! B2 | !>!B3 A B2 =c2 | !>!c3!>(! c G2!>)! ^A2 | %30
w: as each flower _|loves the sun's life-|giv- * ing power; For|dead, thy breath to|life, thy breath to|
 B2 c2 F2 A2 | A4 G4 || z6!f! BB | B4 B4 | c2 c2 c2 B2 | B4 G2 B2 | c2 de f2 B2 | B2 cd e4- | %38
w: life _ might _|move me.|Di- a-|phe- nia,|like to all things|bless- sed, when|all thy _ prai- ses|are ex- * pres-|
 e2 e2 d4 | e3 e f2 B2 | B2 c2 d4 |!p! B3 B c2 f2 | f2 c2 c2 B2 |"^cresc." B3 B B2 =d2 | %44
w: * sed, Dear|joy, how I do|love _ thee!|As the birds do|love the Spring, _|Or the bees their|
 =d3 d d2!f! e2 | e3 e e2 =f2 | f3 c c2!p! B2 |!<(! c2 d2 e2 A2!<)! | G2 F2 B2 B2 | z4 F4 | %50
w: care- ful king : Then|in re- quite, then|in re- quite, Sweet|vir- * gin, sweet|vir- * * gin,|love|
!>(! A4!>)! G4 |] %51
w: _ me.|
V:4
 z6!f! B,B, | E,4 G,2 A,G, | F,A, B,2 G, E,3 | A,6 G,F, | G,4!>(! G,2 F,!>)!E, | B,2 B,,2 !>!C,4 | %6
w: Di- a-|phe- nia, like the|daf- fo- down- dil- ly,|white as the|sun, fair as the|li- ly, Heigh-|
 B,,3 A,, G,,2 F,,2 | B,,4 B,,4 |!p! A,3 G, F,3 E, | D,2 A,2"^cresc." F,2 D,2 | =D,2 C,2 B,,3 B,, | %11
w: ho, how I do|love thee!|I do love thee|as my lambs _|are be- lov- ed|
 E,2 E,2 A,2!f! A,2 | !>!G,3 F, E,2 D,2 | !>!C,3!>(! C, C,2!>)! C,2 | B,,2 A,,2 B,,4 | E,4 E,4 || %16
w: of their dams, How|blest were I, how|blest were I if|thou _ would'st|prove me!|
 z6!f! B,B, | E,4 G,2 A,G, | F,A, B,2 G,2 E,2 | A,6 G,F, | G,4!>(! G,2 F,!>)!E, | %21
w: Di- a-|phe- nia, like the|spread- * ing ro- ses,|that in thy|sweets all love en-|
 B,2 B,,2!>(! !>!C,4 | B,,3!>)! A,, G,,2 F,,2 | B,,4 B,,4 |!p! A,3 G, F,3 E, | %25
w: clo- ses, Fair|sweet, how I do|love thee!|I do love thee|
 D,2"^cresc." A,2 F,2 D,2 | =D,2 C,2 B,,3 B,, | E,2 E,2 A,2!f! A,2 | !>!G,3 F, E,2 D,2 | %29
w: as each flower _|loves the sun's life-|giv- ing power; For|dead, thy breath to|
 !>!C,3!>(! C, C,2!>)! C,2 | B,,2 A,,2 B,,4 | E,4 E,4 || z6!f! B,B, | E,4 G,4 | A,2 G,2 F,2 B,A, | %35
w: life, thy breath to|life _ might|move me.|Di- a-|phe- nia,|like to all things _|
 G,4 E,2 G,2 | A,3 A, A,2 G,F, | G,6 F,E, | A,2 A,2 A,4 | G,3 G, F,2 E,2 | G,2 ^A,2 B,4 | %41
w: bless- sed, when|all thy prai- ses _|are ex- *|pres- sed, Dear|joy, how I do|love _ thee!|
!p! A,3 G, F,2 E,2 | D,2 F,2 A,4 |"^cresc." G,3 G, G,2 F,2 | E,3 F, G,2!f! =D2 | C3 A, C2 B,2 | %46
w: As the birds do|love the Spring,|Or the bees their|care- ful king : Then|in re- quite, then|
 A,3 F, A,2!p! A,2 |!<(! G,2 F,2 E,2 C,2!<)! | B,,2 A,,4 G,,2 | z4 [B,,B,]4- | %50
w: in re- quite, Sweet|vir- * gin, sweet|vir- * gin,|love|
!>(! [B,,B,]4!>)! [E,B,]4 |] %51
w: _ me.|

